korla/scalable/actions/scalable/fcitx-kkc.svg

<svg xmlns="http://www.w3.org/2000/svg" width="16" height="16" version="1.1">
 <defs>
  <style id="current-color-scheme" type="text/css">
   .ColorScheme-Text { color:#5c616c; } .ColorScheme-Highlight { color:#5294e2; }
  </style>
 </defs>
 <path style="fill:currentColor" class="ColorScheme-Text" d="M 2,0 C 0.892,0 0,0.8919999 0,2 v 12 c 0,1.108 0.892,2 2,2 h 12 c 1.108,0 2,-0.892 2,-2 V 2 C 16,0.8919999 15.108,0 14,0 Z M 2,4 H 3 V 8.292969 L 5.2929688,6 H 6 V 4 H 7 V 8.292969 L 9.292969,6 h 1.414062 l -3,3 3,3 H 9.292969 L 7,9.707031 V 12 H 6.707031 6 5.2929688 L 3,9.707031 V 12 H 2 Z m 10,2 c 0.583333,0 1.110664,0.153634 1.478516,0.521484 C 13.846367,6.889344 14,7.41667 14,8 H 13 C 13,7.58333 12.903633,7.360656 12.771484,7.228516 12.639336,7.0964 12.416667,7 12,7 11.583333,7 11.360664,7.096366 11.228516,7.228516 11.09637,7.360656 11,7.58333 11,8 v 2 c 0,0.41667 0.09637,0.639344 0.228516,0.771484 C 11.360664,10.9036 11.583333,11 12,11 12.416667,11 12.639336,10.90363 12.771484,10.771484 12.90363,10.639344 13,10.41667 13,10 h 1 c 0,0.58333 -0.153633,1.110656 -0.521484,1.478516 C 13.110664,11.846366 12.583333,12 12,12 11.416667,12 10.889336,11.846366 10.521484,11.478516 10.153633,11.110656 10,10.58333 10,10 V 8 C 10,7.41667 10.153633,6.889344 10.521484,6.521484 10.889336,6.153634 11.416667,6 12,6 Z M 6,6.707031 3.7070312,9 6,11.292969 Z"/>
</svg>

<svg xmlns="http://www.w3.org/2000/svg" width="16" height="16" version="1.1">
 <defs>
  <style id="current-color-scheme" type="text/css">
   .ColorScheme-Text { color:#444444; } .ColorScheme-Highlight { color:#5294e2; }
  </style>
 </defs>
 <path style="fill:currentColor" class="ColorScheme-Text" d="M 2,0 C 0.892,0 0,0.892 0,2 V 14 C 0,15.108 0.892,16 2,16 H 14 C 15.108,16 16,15.108 16,14 V 2 C 16,0.892 15.108,0 14,0 Z M 2,4 H 3 V 8.293 L 5.293,6 H 6 V 4 H 7 V 8.293 L 9.293,6 H 10.707 L 7.707,9 10.707,12 H 9.293 L 7,9.707 V 12 H 5.293 L 3,9.707 V 12 H 2 Z M 12,6 C 12.583,6 13.111,6.1536 13.479,6.5215 13.846,6.8893 14,7.4167 14,8 H 13 C 13,7.5833 12.904,7.3607 12.771,7.2285 12.639,7.0964 12.417,7 12,7 11.583,7 11.361,7.0964 11.229,7.2285 11.096,7.3607 11,7.5833 11,8 V 10 C 11,10.417 11.096,10.639 11.229,10.771 11.361,10.904 11.583,11 12,11 12.417,11 12.639,10.904 12.771,10.771 12.904,10.639 13,10.417 13,10 H 14 C 14,10.583 13.846,11.111 13.479,11.479 13.111,11.846 12.583,12 12,12 11.417,12 10.889,11.846 10.521,11.479 10.154,11.111 10,10.583 10,10 V 8 C 10,7.4167 10.154,6.8893 10.521,6.5215 10.889,6.1536 11.417,6 12,6 Z M 6,6.707 3.707,9 6,11.293 Z"/>
</svg>
